!!!!SEGMENT: pl-kozmzk--mzk-m-346--013_walczynski-franciszek--cantantibus-organis-adagio.krn
!!!cenid: 18xx:2808
!!!COM: Walczyński, Franciszek
!!!COM-rism: pe30021989
!!!CDT: ~1852-1937
!!!CNT: Polish
!!!OTL: Cantantibus organis – Adagio
!!!PDT: 1898
!!!AGN: Secular
!!!SMS-siglum: PL-KOZmzk
!!!SMS-shelfmark: mzk/m/346
!!!NIFC-rismID: 1001109082
!!!URL-scan: https://repozytorium.nifc.pl/islandora/object/pl-kozmzk%3A7453/datastream/PDF/view
!!!ONB-nifc:
!!!SMS-variant:
!!!SMS-altvar:
!!!OMD:Adagio.
**kern	**kern	**dynam
*part2	*part1	*part1
*staff2	*staff1	*
*I"[Organo]	*	*
*clefF4	*clefG2	*
*k[f#c#]	*k[f#c#]	*
*M3/4	*M3/4	*
=1	=1	=1
*^	*	*
4r	4ryy	(8a/L 8f#/	pp <
.	.	8b/J 8g/	.
4r	4ryy	4a/ 4f#/)	.
[4c#/	(4A\	[4g/ [4e/	[ fp >
=2	=2	=2	=2
4c#/]	4A#X\)	4g/] 4e/]	.
4B/	4B\	4f#/ 4d/	.
4r	4ryy	4r	] pp
=3	=3	=3	=3
*	*	*^	*
!	!	!	!	!LO:DY:a
4r	4ryy	(8f#/L	4r	pp
.	.	8g/J	.	.
4r	4ryy	4f#/)	4r	.
[4G/	4AA#X\	[4e/	[4c#\	<
=4	=4	=4	=4	=4
4G/]	2BB\	4e/]	4c#\]	[ >
4F#/	.	4d/	4d\	.
4r	4r	4r	4ryy	]
=5	=5	=5	=5	=5
(8E/L	2.r	2.r	2.r	fp
8F#/J	.	.	.	.
4E/	.	.	.	.
4d/)	.	.	.	.
=6	=6	=6	=6	=6
!	!	!	!	!LO:DY:a
8c#/L	4r	(8a/L	2.e\	f <
8G#X/J	.	8b/J	.	.
[2A/	4r	2cc#/)	.	.
.	(4Gn\	.	.	[[
=7	=7	=7	=7	=7
*	*	*	*	*^
*	*	*	*	*	*^
!	!	!	!	!LO:DY:a	!	!
2.A/]	4F#\	8dd/L	[2.d\	p	.	.
.	.	8a/J	.	.	.	.
.	4E\	4g/	.	.	.	.
.	4D\)	4f#/	.	>	.	.
=8	=8	=8	=8	=8	=8	=8
!	!	!	!	!	!LO:DY:b=2:rj	!LO:DY:a
2B/	4GG\	4b^/	2d\]	.	p	f
!	!	!	!	!	!	!LO:DY:a
.	4GG#X\	4e/	.	.	.	p
4rB	4r	4r	4ryy	]	]	.
*	*	*	*	*	*v	*v
*	*	*	*	*v	*v
!!LO:LB:g=original
=9	=9	=9	=9	=9
!	!	!	!	!LO:DY:rj
(8A/L	(2.AA\	(8f#/L	2d\	p
8B/J	.	8g/J	.	.
4A/	.	4f#/	.	.
[4G/)	.	4e/	[4c#\	.
=10	=10	=10	=10	=10
4G/]	2D\)	4e^/	4c#\]	>
4F#/	.	4d/)	4d\	.
4rA	4r	4r	4ryy	]
=11	=11	=11	=11	=11
!	!	!	!	!LO:DY:b=2:rj
2.r	(8AA\L	2.rg	2.r	pp
.	8BB\J	.	.	.
.	4AA\	.	.	.
.	4G\	.	.	.
=12	=12	=12	=12	=12
!	!	!	!	!LO:DY:rj
2.r	8F#\L	(8d/L	2.A\	p <
.	8C#\J	8e/J	.	.
.	2D\)	2f#/)	.	[[
=13	=13	=13	=13	=13
4r	(8AA\L	4r	4ryy	.
.	8BB\J	.	.	.
4r	2AA\)	4r	4ryy	.
!	!	!	!	!LO:DY:rj
[4G/	.	[4e/	[4c#\	fp
=14	=14	=14	=14	=14
4G/]	4AA#X'\	4e^/]	4c#\]	.
4F#/	4BB'\	4d/	4d\	.
4rA	4r	4r	4ryy	.
=15	=15	=15	=15	=15
!	!	!	!	!LO:DY:b=2:rj
4r	(8AAn\L	4rc	4rb	pp
.	8BB\J	.	.	.
4r	2AA\)	4rc	4rb	.
(4G/	.	([4a/	(4c#\	>
=16	=16	=16	=16	=16
4F#/)	4D\	8.a/L]	4d\)	.
.	.	16b/Jk	.	.
4rA	4r	2a/)	4r	.
4rA	4r	.	4r	]
*v	*v	*	*	*
*	*v	*v	*
*clefG2	*	*
=17	=17	=17
2.d/	(8a/L 8f#/	pp <
.	8b/J 8g/	.
.	4a/ 4f#/	.
.	[4ff#\ [4dd\)	[ >
=18	=18	=18
*^	*	*
2.a/	2.d;\	2.ff#\] 2.dd\] 2.f#;\	pp ]]
*v	*v	*	*
==	==	==
*-	*-	*-
!!!system-decoration: {(s1,s2)}
!!!EED: Andrzej Borzym
!!!EST: 2021-08-09
!!!ENC: Krzysztof Stępień
!!!END: 2021-07-27
